src/svg/resizeeast.svg

<svg height="35" viewBox="0 0 35 35" width="35" xmlns="http://www.w3.org/2000/svg"><g fill="none" fill-rule="evenodd"><path d="m18 23 6-6-6-6v4h-7v4h7z" fill="#fff"/><path d="m12 16h7v-2.586l3.586 3.586-3.586 3.586v-2.586h-7z" fill="#000"/></g></svg>

<?xml version="1.0" encoding="UTF-8" standalone="no"?>
<svg width="35px" height="35px" viewBox="0 0 35 35" version="1.1" xmlns="http://www.w3.org/2000/svg" xmlns:xlink="http://www.w3.org/1999/xlink">
    <defs></defs>
    <g id="Page-1" stroke="none" stroke-width="1" fill="none" fill-rule="evenodd">
        <g id="resizeeast">
            <g id="bg-copy" fill="#FFFFFF" opacity="0.00999999978">
                <rect id="bg" x="0" y="0" width="35" height="35"></rect>
            </g>
            <path d="M18,23 L24,17 L18,11 L18,15 L11,15 L11,19 L18,19 L18,23 Z" id="arrow-border" fill="#FFFFFF"></path>
            <path d="M12,16 L19,16 L19,13.414 L22.586,17 L19,20.586 L19,18 L12,18 L12,16 Z" id="arrow" fill="#000000"></path>
        </g>
    </g>
</svg>
